;FLAVOR:Marlin
;TIME:32169
;Filament used: 19.8176m
;Layer height: 0.2
;MINX:23
;MINY:70.1
;MINZ:0.2
;MAXX:212
;MAXY:164.9
;MAXZ:83.4
;Generated with Cura_SteamEngine 4.13.0
M140 S70
M105
M190 S70
M104 S220
M105
M109 S220
M82 ;absolute extrusion mode
; Ender 3 Custom Start G-code
G92 E0 ; Reset Extruder
G28 ; Home all axes
G1 Z2.0 F3000 ; Move Z Axis up little to prevent scratching of Heat Bed
G1 X0.1 Y20 Z0.3 F5000.0 ; Move to start position
G1 X0.1 Y200.0 Z0.3 F1500.0 E15 ; Draw the first line
G1 X0.4 Y200.0 Z0.3 F5000.0 ; Move to side a little
G1 X0.4 Y20 Z0.3 F1500.0 E30 ; Draw the second line
G92 E0 ; Reset Extruder
G1 Z2.0 F3000 ; Move Z Axis up little to prevent scratching of Heat Bed
G1 X5 Y20 Z0.3 F5000.0 ; Move over to prevent blob squish
G92 E0
G92 E0
G1 F2700 E-5
;LAYER_COUNT:419
;LAYER:0
M107
G0 F6000 X30.101 Y70.827 Z0.2
;TYPE:SKIRT
G1 F2700 E0
G1 F1200 X30.991 Y70.531 E0.0312
G1 X31.903 Y70.313 E0.06238
G1 X32.83 Y70.172 E0.09357
G1 X33.701 Y70.113 E0.12261
G1 X34.022 Y70.104 E0.13329
G1 X34.33 Y70.1 E0.14353
G1 X200.293 Y70.1 E5.66348
G1 X201.149 Y70.111 E5.69196
G1 X202.085 Y70.165 E5.72314
G1 X203.013 Y70.297 E5.75432
G1 X203.927 Y70.509 E5.78552
G1 X204.819 Y70.798 E5.81671
G1 X205.684 Y71.161 E5.84791
G1 X206.514 Y71.597 E5.87909
G1 X207.305 Y72.102 E5.91031
G1 X208.049 Y72.673 E5.9415
G1 X208.742 Y73.305 E5.97269
G1 X209.379 Y73.993 E6.00388
G1 X209.954 Y74.734 E6.03507
G1 X210.465 Y75.52 E6.06626
G1 X210.907 Y76.348 E6.09747
G1 X211.276 Y77.21 E6.12866
G1 X211.571 Y78.1 E6.15985
G1 X211.789 Y79.012 E6.19103
G1 X211.929 Y79.94 E6.22225
G1 X211.987 Y80.801 E6.25095
G1 X211.996 Y81.121 E6.2616
G1 X212 Y81.43 E6.27188
G1 X211.999 Y153.3 E8.66228
G1 X211.99 Y154.027 E8.68646
G1 X211.939 Y154.964 E8.71767
G1 X211.807 Y155.892 E8.74885
G1 X211.598 Y156.806 E8.78004
G1 X211.311 Y157.699 E8.81123
G1 X210.949 Y158.565 E8.84245
G1 X210.515 Y159.396 E8.87363
G1 X210.011 Y160.187 E8.90483
G1 X209.442 Y160.932 E8.93601
G1 X208.811 Y161.627 E8.96723
G1 X208.124 Y162.265 E8.99841
G1 X207.385 Y162.842 E9.0296
G1 X206.599 Y163.354 E9.0608
G1 X205.773 Y163.797 E9.09197
G1 X204.911 Y164.169 E9.1232
G1 X204.022 Y164.465 E9.15436
G1 X203.11 Y164.685 E9.18556
G1 X202.183 Y164.826 E9.21675
G1 X201.299 Y164.887 E9.24622
G1 X200.978 Y164.896 E9.2569
G1 X200.67 Y164.9 E9.26715
G1 X34.565 Y164.899 E14.79182
G1 X33.867 Y164.89 E14.81504
G1 X32.931 Y164.838 E14.84622
G1 X32.002 Y164.706 E14.87743
G1 X31.088 Y164.496 E14.90862
G1 X30.195 Y164.209 E14.93982
G1 X29.33 Y163.846 E14.97102
G1 X28.499 Y163.412 E15.0022
G1 X27.708 Y162.908 E15.0334
G1 X26.963 Y162.338 E15.0646
G1 X26.269 Y161.707 E15.09579
G1 X25.632 Y161.02 E15.12695
G1 X25.055 Y160.28 E15.15816
G1 X24.543 Y159.494 E15.18936
G1 X24.1 Y158.667 E15.22057
G1 X23.729 Y157.806 E15.25175
G1 X23.433 Y156.916 E15.28295
G1 X23.214 Y156.004 E15.31414
G1 X23.073 Y155.077 E15.34533
G1 X23.013 Y154.188 E15.37496
G1 X23.004 Y153.855 E15.38604
G1 X23 Y153.558 E15.39592
G1 X23.001 Y81.625 E17.78842
G1 X23.01 Y80.96 E17.81054
G1 X23.063 Y80.024 E17.84173
G1 X23.195 Y79.095 E17.87293
G1 X23.406 Y78.181 E17.90413
G1 X23.694 Y77.289 E17.93531
G1 X24.057 Y76.424 E17.96651
G1 X24.492 Y75.593 E17.99771
G1 X24.996 Y74.803 E18.02887
G1 X25.566 Y74.058 E18.06007
G1 X26.198 Y73.364 E18.09129
G1 X26.886 Y72.727 E18.12248
G1 X27.626 Y72.151 E18.15367
G1 X28.412 Y71.639 E18.18487
G1 X29.239 Y71.197 E18.21606
G1 X30.101 Y70.827 E18.24726
G0 F6000 X30.465 Y71.119
G1 F1200 X31.345 Y70.849 E18.27787
G1 X32.245 Y70.657 E18.30848
G1 X33.159 Y70.543 E18.33911
G1 X33.712 Y70.513 E18.35753
G1 X34.033 Y70.504 E18.36822
G1 X34.33 Y70.5 E18.37809
G1 X200.293 Y70.5 E23.89805
G1 X201.143 Y70.511 E23.92632
G1 X202.062 Y70.564 E23.95694
G1 X202.973 Y70.697 E23.98756
G1 X203.869 Y70.908 E24.01817
G1 X204.743 Y71.196 E24.04878
G1 X205.59 Y71.559 E24.07943
G1 X206.401 Y71.994 E24.11004
G1 X207.171 Y72.498 E24.14065
G1 X207.895 Y73.067 E24.17128
G1 X208.567 Y73.697 E24.20191
G1 X209.182 Y74.382 E24.23253
G1 X209.735 Y75.118 E24.26315
G1 X210.222 Y75.899 E24.29376
G1 X210.639 Y76.72 E24.32439
G1 X210.984 Y77.574 E24.35502
G1 X211.253 Y78.454 E24.38563
G1 X211.445 Y79.355 E24.41627
G1 X211.558 Y80.268 E24.44687
G1 X211.587 Y80.812 E24.46499
G1 X211.596 Y81.132 E24.47563
G1 X211.6 Y81.43 E24.48555
G1 X211.599 Y153.295 E26.87579
G1 X211.59 Y154.022 E26.89997
G1 X211.539 Y154.941 E26.93058
G1 X211.408 Y155.853 E26.96123
G1 X211.198 Y156.749 E26.99183
G1 X210.912 Y157.624 E27.02245
G1 X210.551 Y158.471 E27.05308
G1 X210.117 Y159.283 E27.0837
G1 X209.615 Y160.055 E27.11433
G1 X209.047 Y160.78 E27.14496
G1 X208.419 Y161.453 E27.17558
G1 X207.735 Y162.069 E27.20619
G1 X207 Y162.623 E27.2368
G1 X206.22 Y163.112 E27.26742
G1 X205.4 Y163.531 E27.29805
G1 X204.547 Y163.877 E27.32867
G1 X203.667 Y164.148 E27.35929
G1 X202.767 Y164.341 E27.38991
G1 X201.853 Y164.456 E27.42055
G1 X201.288 Y164.487 E27.43937
G1 X200.967 Y164.496 E27.45005
G1 X200.67 Y164.5 E27.45993
G1 X34.57 Y164.499 E32.98444
G1 X33.872 Y164.49 E33.00765
G1 X32.953 Y164.438 E33.03827
G1 X32.042 Y164.307 E33.06888
G1 X31.146 Y164.097 E33.09949
G1 X30.271 Y163.81 E33.13012
G1 X29.424 Y163.448 E33.16075
G1 X28.612 Y163.014 E33.19138
G1 X27.841 Y162.512 E33.22198
G1 X27.116 Y161.944 E33.25261
G1 X26.443 Y161.315 E33.28325
G1 X25.828 Y160.631 E33.31384
G1 X25.274 Y159.896 E33.34445
G1 X24.786 Y159.115 E33.37508
G1 X24.367 Y158.295 E33.40571
G1 X24.021 Y157.442 E33.43633
G1 X23.751 Y156.562 E33.46694
G1 X23.558 Y155.661 E33.49759
G1 X23.444 Y154.748 E33.52819
G1 X23.413 Y154.177 E33.54721
G1 X23.404 Y153.844 E33.55829
G1 X23.4 Y153.558 E33.5678
G1 X23.401 Y81.631 E35.96011
G1 X23.41 Y80.966 E35.98223
G1 X23.462 Y80.046 E36.01287
G1 X23.594 Y79.135 E36.04349
G1 X23.805 Y78.239 E36.07411
G1 X24.092 Y77.364 E36.10473
G1 X24.455 Y76.518 E36.13535
G1 X24.889 Y75.706 E36.16598
G1 X25.392 Y74.935 E36.19659
G1 X25.961 Y74.211 E36.22722
G1 X26.589 Y73.539 E36.25781
G1 X27.274 Y72.923 E36.28845
G1 X28.01 Y72.37 E36.31907
G1 X28.791 Y71.882 E36.3497
G1 X29.611 Y71.464 E36.38032
G1 X30.465 Y71.119 E36.41095
G0 F6000 X29.982 Y71.738
G1 F1200 X30.827 Y71.418 E36.441
G1 X31.696 Y71.175 E36.47101
G1 X32.584 Y71.009 E36.50106
G1 X33.723 Y70.913 E36.53908
G1 X34.044 Y70.904 E36.54976
G1 X34.33 Y70.9 E36.55927
G1 X200.293 Y70.9 E42.07922
G1 X201.137 Y70.911 E42.1073
G1 X202.039 Y70.964 E42.13735
G1 X202.932 Y71.096 E42.16738
G1 X203.81 Y71.307 E42.19741
G1 X204.666 Y71.595 E42.22745
G1 X205.493 Y71.957 E42.25747
G1 X206.285 Y72.392 E42.28753
G1 X207.036 Y72.894 E42.31757
G1 X207.739 Y73.461 E42.34761
G1 X208.389 Y74.088 E42.37765
G1 X208.981 Y74.77 E42.40769
G1 X209.511 Y75.501 E42.43772
G1 X209.973 Y76.277 E42.46776
G1 X210.366 Y77.09 E42.49779
G1 X210.684 Y77.935 E42.52782
G1 X210.927 Y78.805 E42.55786
G1 X211.092 Y79.693 E42.5879
G1 X211.187 Y80.823 E42.62562
G1 X211.196 Y81.143 E42.63627
G1 X211.2 Y81.43 E42.64581
G1 X211.199 Y153.29 E45.03589
G1 X211.19 Y154.017 E45.06007
G1 X211.139 Y154.919 E45.09012
G1 X211.008 Y155.813 E45.12017
G1 X210.799 Y156.691 E45.15019
G1 X210.513 Y157.548 E45.18024
G1 X210.152 Y158.376 E45.21028
G1 X209.72 Y159.168 E45.24029
G1 X209.219 Y159.92 E45.27034
G1 X208.653 Y160.624 E45.30038
G1 X208.028 Y161.275 E45.3304
G1 X207.347 Y161.869 E45.36046
G1 X206.616 Y162.4 E45.39051
G1 X205.842 Y162.864 E45.42052
G1 X205.029 Y163.258 E45.45057
G1 X204.185 Y163.578 E45.48059
G1 X203.315 Y163.823 E45.51065
G1 X202.428 Y163.989 E45.54067
G1 X201.277 Y164.087 E45.57909
G1 X200.956 Y164.096 E45.58977
G1 X200.67 Y164.1 E45.59928
G1 X34.575 Y164.099 E51.12362
G1 X33.877 Y164.09 E51.14684
G1 X32.976 Y164.039 E51.17686
G1 X32.082 Y163.907 E51.20691
G1 X31.204 Y163.698 E51.23693
G1 X30.347 Y163.411 E51.26699
G1 X29.52 Y163.05 E51.29701
G1 X28.727 Y162.617 E51.32706
G1 X27.976 Y162.116 E51.35708
G1 X27.272 Y161.55 E51.38713
G1 X26.621 Y160.924 E51.41717
G1 X26.028 Y160.243 E51.4472
G1 X25.498 Y159.512 E51.47723
G1 X25.034 Y158.737 E51.50727
G1 X24.64 Y157.924 E51.53732
G1 X24.32 Y157.08 E51.56734
G1 X24.076 Y156.21 E51.5974
G1 X23.91 Y155.322 E51.62744
G1 X23.813 Y154.167 E51.66599
G1 X23.804 Y153.834 E51.67707
G1 X23.8 Y153.558 E51.68625
G1 X23.801 Y81.636 E54.07839
G1 X23.81 Y80.971 E54.10051
G1 X23.862 Y80.069 E54.13056
G1 X23.994 Y79.176 E54.16058
G1 X24.204 Y78.298 E54.19061
G1 X24.491 Y77.441 E54.22067
G1 X24.853 Y76.614 E54.2507
G1 X25.286 Y75.822 E54.28072
G1 X25.788 Y75.071 E54.31076
G1 X26.355 Y74.367 E54.34083
G1 X26.981 Y73.717 E54.37084
G1 X27.662 Y73.124 E54.40088
G1 X28.394 Y72.594 E54.43094
G1 X29.169 Y72.131 E54.46096
G1 X29.982 Y71.738 E54.491
G1 F2700 E49.491
;MESH:CybICS.stl
G0 F6000 X34.414 Y80.435
G0 X34.414 Y81.514
G0 X35.982 Y151.918
G0 X46.865 Y151.91
G0 X41.219 Y142.1
G0 X47.36 Y131.464
G0 X58.749 Y133.006
G0 X64.002 Y142.1
G0 X59.308 Y152.16
;TYPE:WALL-INNER
G1 F2700 E54.491
G1 F1200 X65.117 Y142.1 E54.87737
G1 X59.308 Y132.04 E55.26374
G1 X47.692 Y132.04 E55.65009
G1 X41.883 Y142.1 E56.03647
G1 X47.692 Y152.16 E56.42284
G1 X59.308 Y152.16 E56.80919
G0 F6000 X59.077 Y151.76
G1 F1200 X64.655 Y142.1 E57.1802
G1 X59.077 Y132.44 E57.55121
G1 X47.923 Y132.44 E57.92219
G1 X42.345 Y142.1 E58.2932
G1 X47.923 Y151.76 E58.66421
G1 X59.077 Y151.76 E59.0352
G0 F6000 X58.846 Y151.36
G1 F1200 X64.193 Y142.1 E59.39084
G1 X58.846 Y132.84 E59.74649
G1 X48.154 Y132.84 E60.10211
G1 X42.807 Y142.1 E60.45776
G1 X48.154 Y151.36 E60.8134
G1 X58.846 Y151.36 E61.16902
G0 F6000 X58.615 Y150.96
;TYPE:WALL-OUTER
G1 F1200 X63.731 Y142.1 E61.5093
G1 X58.615 Y133.24 E61.84959
G1 X48.385 Y133.24 E62.18984
G1 X43.269 Y142.1 E62.53012
G1 X48.385 Y150.96 E62.87041
G1 X58.615 Y150.96 E63.21066
G1 F2700 E58.21066
G0 F6000 X58.873 Y151.11
G0 X64.002 Y142.1
G0 X58.954 Y131.469
G0 X47.36 Y131.464
G0 X41.219 Y142.1
G0 X46.865 Y151.91
G0 X35.982 Y151.918
G0 X35.982 Y83.082
G0 X46.404 Y83.09
G0 X41.219 Y92.1
G0 X46.745 Y101.672
G0 X59.077 Y101.76
;TYPE:WALL-INNER
G1 F2700 E63.21066
G1 F1200 X64.655 Y92.1 E63.58167
G1 X59.077 Y82.44 E63.95268
G1 X47.923 Y82.44 E64.32366
G1 X42.345 Y92.1 E64.69467
G1 X47.923 Y101.76 E65.06568
G1 X59.077 Y101.76 E65.43667
G0 F6000 X58.846 Y101.36
G1 F1200 X64.193 Y92.1 E65.79231
G1 X58.846 Y82.84 E66.14796
G1 X48.154 Y82.84 E66.50358
G1 X42.807 Y92.1 E66.85923
G1 X48.154 Y101.36 E67.21487
G1 X58.846 Y101.36 E67.57049
G0 F6000 X58.615 Y100.96
;TYPE:WALL-OUTER
G1 F1200 X63.731 Y92.1 E67.91077
G1 X58.615 Y83.24 E68.25106
G1 X48.385 Y83.24 E68.59131
G1 X43.269 Y92.1 E68.93159
G1 X48.385 Y100.96 E69.27188
G1 X58.615 Y100.96 E69.61213
G1 F2700 E64.61213
G0 F6000 X58.873 Y101.11
G0 X65.781 Y92.1
G0 X60.596 Y83.09
G0 X71.404 Y83.09
G0 X66.219 Y92.1
G0 X71.61 Y101.437
G0 X84.077 Y101.76
;TYPE:WALL-INNER
G1 F2700 E69.61213
G1 F1200 X89.655 Y92.1 E69.98314
G1 X84.077 Y82.44 E70.35415
G1 X72.923 Y82.44 E70.72513
G1 X67.345 Y92.1 E71.09614
G1 X72.923 Y101.76 E71.46715
G1 X84.077 Y101.76 E71.83814
G0 F6000 X83.846 Y101.36
G1 F1200 X89.193 Y92.1 E72.19378
G1 X83.846 Y82.84 E72.54943
G1 X73.154 Y82.84 E72.90505
G1 X67.807 Y92.1 E73.2607
G1 X73.154 Y101.36 E73.61634
G1 X83.846 Y101.36 E73.97196
G0 F6000 X83.615 Y100.96
;TYPE:WALL-OUTER
G1 F1200 X88.731 Y92.1 E74.31224
G1 X83.615 Y83.24 E74.65253
G1 X73.385 Y83.24 E74.99278
G1 X68.269 Y92.1 E75.33306
G1 X73.385 Y100.96 E75.67335
G1 X83.615 Y100.96 E76.0136
G1 F2700 E71.0136
G0 F6000 X83.873 Y101.11
G0 X90.781 Y92.1
G0 X85.596 Y83.09
G0 X96.404 Y83.09
G0 X91.219 Y92.1
G0 X96.474 Y101.201
G0 X110.466 Y101.304
G0 X115.781 Y92.1
G0 X110.596 Y83.09
G0 X121.404 Y83.09
G0 X116.219 Y92.1
G0 X121.58 Y101.385
G0 X135.36 Y101.485
G0 X140.781 Y92.1
G0 X135.596 Y83.09
G0 X146.404 Y83.09
G0 X141.219 Y92.1
G0 X146.686 Y101.568
G0 X160.255 Y101.667
G0 X165.781 Y92.1
G0 X160.596 Y83.09
G0 X171.404 Y83.09
G0 X166.738 Y91.199
G0 X172.923 Y101.76
;TYPE:WALL-INNER
G1 F2700 E76.0136
G1 F1200 X184.077 Y101.76 E76.38458
G1 X189.655 Y92.1 E76.75559
G1 X184.077 Y82.44 E77.1266
G1 X172.923 Y82.44 E77.49759
G1 X167.345 Y92.1 E77.8686
G1 X172.923 Y101.76 E78.23961
G0 F6000 X173.154 Y101.36
G1 F1200 X183.846 Y101.36 E78.59522
G1 X189.193 Y92.1 E78.95087
G1 X183.846 Y82.84 E79.30652
G1 X173.154 Y82.84 E79.66214
G1 X167.807 Y92.1 E80.01778
G1 X173.154 Y101.36 E80.37343
G0 F6000 X173.385 Y100.96
;TYPE:WALL-OUTER
G1 F1200 X183.615 Y100.96 E80.71368
G1 X188.731 Y92.1 E81.05397
G1 X183.615 Y83.24 E81.39425
G1 X173.385 Y83.24 E81.7345
G1 X168.269 Y92.1 E82.07478
G1 X173.385 Y100.96 E82.41507
G1 F2700 E77.41507
G0 F6000 X173.126 Y101.109
G0 X166.219 Y92.1
G0 X171.404 Y83.09
G0 X160.596 Y83.09
G0 X165.781 Y92.1
G0 X160.39 Y101.437
G0 X147.923 Y101.76
;TYPE:WALL-INNER
G1 F2700 E82.41507
G1 F1200 X159.077 Y101.76 E82.78605
G1 X164.655 Y92.1 E83.15706
G1 X159.077 Y82.44 E83.52807
G1 X147.923 Y82.44 E83.89906
G1 X142.345 Y92.1 E84.27007
G1 X147.923 Y101.76 E84.64108
G0 F6000 X148.154 Y101.36
G1 F1200 X158.846 Y101.36 E84.99669
G1 X164.193 Y92.1 E85.35234
G1 X158.846 Y82.84 E85.70799
G1 X148.154 Y82.84 E86.06361
G1 X142.807 Y92.1 E86.41925
G1 X148.154 Y101.36 E86.7749
G0 F6000 X148.385 Y100.96
;TYPE:WALL-OUTER
G1 F1200 X158.615 Y100.96 E87.11515
G1 X163.731 Y92.1 E87.45544
G1 X158.615 Y83.24 E87.79572
G1 X148.385 Y83.24 E88.13597
G1 X143.269 Y92.1 E88.47625
G1 X148.385 Y100.96 E88.81654
G1 F2700 E83.81654
G0 F6000 X148.126 Y101.109
G0 X141.219 Y92.1
G0 X146.404 Y83.09
G0 X135.596 Y83.09
G0 X140.781 Y92.1
G0 X135.389 Y101.437
G0 X122.923 Y101.76
;TYPE:WALL-INNER
G1 F2700 E88.81654
G1 F1200 X134.077 Y101.76 E89.18752
G1 X139.655 Y92.1 E89.55853
G1 X134.077 Y82.44 E89.92954
G1 X122.923 Y82.44 E90.30053
G1 X117.345 Y92.1 E90.67154
G1 X122.923 Y101.76 E91.04255
G0 F6000 X123.154 Y101.36
G1 F1200 X133.846 Y101.36 E91.39816
G1 X139.193 Y92.1 E91.75381
G1 X133.846 Y82.84 E92.10946
G1 X123.154 Y82.84 E92.46508
G1 X117.807 Y92.1 E92.82072
G1 X123.154 Y101.36 E93.17637
G0 F6000 X123.385 Y100.96
;TYPE:WALL-OUTER
G1 F1200 X133.615 Y100.96 E93.51662
G1 X138.731 Y92.1 E93.85691
G1 X133.615 Y83.24 E94.19719
G1 X123.385 Y83.24 E94.53744
G1 X118.269 Y92.1 E94.87772
G1 X123.385 Y100.96 E95.21801
G1 F2700 E90.21801
G0 F6000 X123.126 Y101.109
G0 X116.219 Y92.1
G0 X121.404 Y83.09
G0 X110.596 Y83.09
G0 X115.262 Y91.199
G0 X109.077 Y101.76
;TYPE:WALL-INNER
G1 F2700 E95.21801
G1 F1200 X114.655 Y92.1 E95.58902
G1 X109.077 Y82.44 E95.96003
G1 X97.923 Y82.44 E96.33101
G1 X92.345 Y92.1 E96.70202
G1 X97.923 Y101.76 E97.07303
G1 X109.077 Y101.76 E97.44402
G0 F6000 X108.846 Y101.36
G1 F1200 X114.193 Y92.1 E97.79966
G1 X108.846 Y82.84 E98.15531
G1 X98.154 Y82.84 E98.51093
G1 X92.807 Y92.1 E98.86658
G1 X98.154 Y101.36 E99.22222
G1 X108.846 Y101.36 E99.57784
G0 F6000 X108.615 Y100.96
;TYPE:WALL-OUTER
G1 F1200 X113.731 Y92.1 E99.91812
G1 X108.615 Y83.24 E100.25841
G1 X98.385 Y83.24 E100.59866
G1 X93.269 Y92.1 E100.93894
G1 X98.385 Y100.96 E101.27923
G1 X108.615 Y100.96 E101.61948
G1 F2700 E96.61948
G0 F6000 X108.873 Y101.111
G0 X108.492 Y101.165
G0 X97.34 Y102.77
G0 X97.15 Y106.447
G0 X101.502 Y117.1
G0 X97.039 Y127.56
;TYPE:WALL-INNER
G1 F2700 E101.61948
G1 F1200 X103.079 Y117.1 E102.02121
G1 X97.039 Y106.64 E102.42295
G1 X84.961 Y106.64 E102.82467
G1 X78.921 Y117.1 E103.2264
G1 X84.961 Y127.56 E103.62814
G1 X97.039 Y127.56 E104.02986
G0 F6000 X96.808 Y127.16
G1 F1200 X102.617 Y117.1 E104.41623
G1 X96.808 Y107.04 E104.8026
G1 X85.192 Y107.04 E105.18895
G1 X79.383 Y117.1 E105.57533
G1 X85.192 Y127.16 E105.9617
G1 X96.808 Y127.16 E106.34805
G0 F6000 X96.577 Y126.76
G1 F1200 X102.155 Y117.1 E106.71906
G1 X96.577 Y107.44 E107.09007
G1 X85.423 Y107.44 E107.46105
G1 X79.845 Y117.1 E107.83206
G1 X85.423 Y126.76 E108.20308
G1 X96.577 Y126.76 E108.57406
G0 F6000 X96.346 Y126.36
G1 F1200 X101.693 Y117.1 E108.92971
G1 X96.346 Y107.84 E109.28535
G1 X85.654 Y107.84 E109.64097
G1 X80.307 Y117.1 E109.99662
G1 X85.654 Y126.36 E110.35226
G1 X96.346 Y126.36 E110.70788
G0 F6000 X96.115 Y125.96
;TYPE:WALL-OUTER
G1 F1200 X101.231 Y117.1 E111.04817
G1 X96.115 Y108.24 E111.38845
G1 X85.885 Y108.24 E111.7287
G1 X80.769 Y117.1 E112.06899
G1 X85.885 Y125.96 E112.40927
G1 X96.115 Y125.96 E112.74952
