;FLAVOR:Marlin
;TIME:4144
;Filament used: 1.65498m
;Layer height: 0.2
;MINX:101.5
;MINY:72.086
;MINZ:0.2
;MAXX:133.5
;MAXY:163.986
;MAXZ:71.8
;TARGET_MACHINE.NAME:Creality Ender-3
;Generated with Cura_SteamEngine 5.8.1
M140 S70
M105
M190 S70
M104 S220
M105
M109 S220
M82 ;absolute extrusion mode
; Ender 3 Custom Start G-code
G92 E0 ; Reset Extruder
G28 ; Home all axes
G1 Z2.0 F3000 ; Move Z Axis up little to prevent scratching of Heat Bed
G1 X0.1 Y20 Z0.3 F5000.0 ; Move to start position
G1 X0.1 Y200.0 Z0.3 F1500.0 E15 ; Draw the first line
G1 X0.4 Y200.0 Z0.3 F5000.0 ; Move to side a little
G1 X0.4 Y20 Z0.3 F1500.0 E30 ; Draw the second line
G92 E0 ; Reset Extruder
G1 Z2.0 F3000 ; Move Z Axis up little to prevent scratching of Heat Bed
G1 X5 Y20 Z0.3 F5000.0 ; Move over to prevent blob squish
G92 E0
G92 E0
G1 F2700 E-5
;LAYER_COUNT:359
;LAYER:0
M107
G0 F6000 X103.663 Y76.557 Z0.2
;TYPE:SKIRT
G1 F2700 E0
G1 F1200 X104.229 Y75.854 E0.03002
G1 X104.955 Y75.101 E0.06481
G1 X105.691 Y74.464 E0.09718
G1 X106.422 Y73.934 E0.12721
G1 X107.32 Y73.398 E0.162
G1 X108.198 Y72.977 E0.19438
G1 X109.109 Y72.636 E0.22674
G1 X110.047 Y72.376 E0.25911
G1 X111.014 Y72.198 E0.29181
G1 X112.141 Y72.102 E0.32943
G1 X112.814 Y72.087 E0.35182
G1 X121.798 Y72.086 E0.65063
G1 X122.682 Y72.099 E0.68004
G1 X123.654 Y72.158 E0.71243
G1 X124.617 Y72.304 E0.74482
G1 X125.564 Y72.535 E0.77724
G1 X126.485 Y72.848 E0.8096
G1 X127.377 Y73.242 E0.84203
G1 X128.23 Y73.713 E0.87444
G1 X129.036 Y74.257 E0.90678
G1 X129.793 Y74.871 E0.9392
G1 X130.491 Y75.549 E0.97156
G1 X131.127 Y76.285 E1.00392
G1 X131.657 Y77.017 E1.03397
G1 X132.193 Y77.915 E1.06876
G1 X132.599 Y78.762 E1.1
G1 X132.953 Y79.705 E1.1335
G1 X133.212 Y80.644 E1.1659
G1 X133.389 Y81.61 E1.19856
G1 X133.484 Y82.726 E1.23581
G1 X133.5 Y83.434 E1.25937
G1 X133.499 Y152.386 E3.55272
G1 X133.488 Y153.149 E3.5781
G1 X133.431 Y154.122 E3.61052
G1 X133.286 Y155.085 E3.64291
G1 X133.057 Y156.031 E3.67528
G1 X132.746 Y156.955 E3.70771
G1 X132.354 Y157.846 E3.74008
G1 X131.886 Y158.698 E3.77242
G1 X131.364 Y159.479 E3.80366
G1 X130.731 Y160.264 E3.8372
G1 X130.106 Y160.915 E3.86722
G1 X129.317 Y161.603 E3.90203
G1 X128.557 Y162.153 E3.93324
G1 X127.69 Y162.67 E3.96681
G1 X126.812 Y163.092 E3.99921
G1 X125.901 Y163.434 E4.03158
G1 X124.962 Y163.695 E4.06399
G1 X123.996 Y163.873 E4.09666
G1 X122.845 Y163.971 E4.13508
G1 X122.17 Y163.986 E4.15754
G1 X113.064 Y163.985 E4.46041
G1 X112.331 Y163.974 E4.48479
G1 X111.359 Y163.917 E4.51717
G1 X110.396 Y163.771 E4.54957
G1 X109.45 Y163.542 E4.58194
G1 X108.526 Y163.23 E4.61438
G1 X107.636 Y162.838 E4.64672
G1 X106.813 Y162.387 E4.67794
G1 X105.974 Y161.826 E4.71151
G1 X105.27 Y161.26 E4.74155
G1 X104.517 Y160.535 E4.77632
G1 X103.88 Y159.799 E4.80869
G1 X103.35 Y159.068 E4.83872
G1 X102.814 Y158.171 E4.87348
G1 X102.392 Y157.293 E4.90588
G1 X102.05 Y156.381 E4.93827
G1 X101.79 Y155.443 E4.97065
G1 X101.612 Y154.474 E5.00342
G1 X101.514 Y153.295 E5.04276
G1 X101.5 Y152.644 E5.06442
G1 X101.501 Y83.623 E7.36007
G1 X101.512 Y82.914 E7.38365
G1 X101.57 Y81.941 E7.41607
G1 X101.716 Y80.978 E7.44847
G1 X101.946 Y80.031 E7.48088
G1 X102.258 Y79.109 E7.51326
G1 X102.65 Y78.219 E7.5456
G1 X103.12 Y77.365 E7.57802
G1 X103.663 Y76.557 E7.6104
G0 F6000 X103.975 Y76.808
G1 F1200 X104.541 Y76.105 E7.64042
G1 X105.217 Y75.403 E7.67284
G1 X105.926 Y74.788 E7.70405
G1 X106.657 Y74.258 E7.73408
G1 X107.493 Y73.758 E7.76648
G1 X108.339 Y73.351 E7.79771
G1 X109.217 Y73.021 E7.8289
G1 X110.12 Y72.769 E7.86009
G1 X111.048 Y72.597 E7.89148
G1 X112.175 Y72.501 E7.9291
G1 X112.814 Y72.487 E7.95036
G1 X121.792 Y72.486 E8.24896
G1 X122.658 Y72.498 E8.27777
G1 X123.595 Y72.554 E8.30899
G1 X124.523 Y72.693 E8.3402
G1 X125.436 Y72.914 E8.37144
G1 X126.324 Y73.214 E8.40262
G1 X127.184 Y73.592 E8.43386
G1 X128.007 Y74.045 E8.46511
G1 X128.785 Y74.568 E8.49629
G1 X129.515 Y75.158 E8.52751
G1 X130.189 Y75.811 E8.55872
G1 X130.803 Y76.52 E8.58992
G1 X131.333 Y77.252 E8.61997
G1 X131.832 Y78.088 E8.65236
G1 X132.238 Y78.935 E8.6836
G1 X132.568 Y79.812 E8.71476
G1 X132.819 Y80.717 E8.746
G1 X132.99 Y81.644 E8.77735
G1 X133.085 Y82.76 E8.8146
G1 X133.1 Y83.434 E8.83703
G1 X133.099 Y152.381 E11.13021
G1 X133.089 Y153.126 E11.15499
G1 X133.035 Y154.063 E11.18621
G1 X132.897 Y154.992 E11.21745
G1 X132.678 Y155.904 E11.24864
G1 X132.38 Y156.794 E11.27986
G1 X132.003 Y157.654 E11.31109
G1 X131.553 Y158.476 E11.34226
G1 X131.031 Y159.257 E11.3735
G1 X130.442 Y159.987 E11.4047
G1 X129.817 Y160.638 E11.43472
G1 X129.082 Y161.279 E11.46716
G1 X128.322 Y161.829 E11.49836
G1 X127.516 Y162.31 E11.52958
G1 X126.671 Y162.718 E11.56079
G1 X125.793 Y163.049 E11.59199
G1 X124.889 Y163.302 E11.62322
G1 X123.962 Y163.474 E11.65458
G1 X122.811 Y163.572 E11.693
G1 X122.17 Y163.586 E11.71432
G1 X113.07 Y163.585 E12.01699
G1 X112.354 Y163.575 E12.0408
G1 X111.418 Y163.521 E12.07199
G1 X110.489 Y163.382 E12.10323
G1 X109.577 Y163.163 E12.13443
G1 X108.687 Y162.864 E12.16565
G1 X107.828 Y162.487 E12.19685
G1 X107.005 Y162.036 E12.22807
G1 X106.225 Y161.514 E12.25928
G1 X105.521 Y160.948 E12.28933
G1 X104.819 Y160.273 E12.32172
G1 X104.204 Y159.564 E12.35294
G1 X103.674 Y158.833 E12.38297
G1 X103.174 Y157.997 E12.41537
G1 X102.766 Y157.152 E12.44658
G1 X102.435 Y156.274 E12.47779
G1 X102.183 Y155.37 E12.509
G1 X102.011 Y154.441 E12.54042
G1 X101.913 Y153.262 E12.57977
G1 X101.9 Y152.644 E12.60033
G1 X101.901 Y83.629 E14.89578
G1 X101.911 Y82.937 E14.9188
G1 X101.966 Y82 E14.95002
G1 X102.105 Y81.072 E14.98123
G1 X102.325 Y80.159 E15.01246
G1 X102.624 Y79.27 E15.04366
G1 X103.001 Y78.411 E15.07486
G1 X103.452 Y77.588 E15.10607
G1 X103.975 Y76.808 E15.13731
G0 F6000 X104.287 Y77.059
G1 F1200 X104.853 Y76.356 E15.16732
G1 X105.48 Y75.705 E15.19739
G1 X106.161 Y75.112 E15.22742
G1 X106.892 Y74.582 E15.25745
G1 X107.667 Y74.118 E15.2875
G1 X108.48 Y73.725 E15.31753
G1 X109.325 Y73.406 E15.34757
G1 X110.194 Y73.162 E15.37759
G1 X111.082 Y72.996 E15.40764
G1 X112.209 Y72.9 E15.44526
G1 X112.814 Y72.887 E15.46538
G1 X121.787 Y72.886 E15.76383
G1 X122.635 Y72.897 E15.79203
G1 X123.537 Y72.95 E15.82209
G1 X124.43 Y73.082 E15.85211
G1 X125.308 Y73.293 E15.88214
G1 X126.164 Y73.581 E15.91218
G1 X126.992 Y73.943 E15.94224
G1 X127.784 Y74.377 E15.97228
G1 X128.534 Y74.88 E16.00231
G1 X129.237 Y75.446 E16.03233
G1 X129.887 Y76.073 E16.06237
G1 X130.479 Y76.755 E16.09241
G1 X131.009 Y77.487 E16.12247
G1 X131.472 Y78.262 E16.15249
G1 X131.864 Y79.076 E16.18254
G1 X132.183 Y79.92 E16.21255
G1 X132.426 Y80.79 E16.24259
G1 X132.591 Y81.678 E16.27264
G1 X132.686 Y82.794 E16.30989
G1 X132.7 Y83.434 E16.33118
G1 X132.699 Y152.376 E18.6242
G1 X132.69 Y153.103 E18.64838
G1 X132.639 Y154.005 E18.67843
G1 X132.508 Y154.899 E18.70848
G1 X132.299 Y155.777 E18.7385
G1 X132.013 Y156.634 E18.76855
G1 X131.652 Y157.462 E18.79859
G1 X131.22 Y158.254 E18.8286
G1 X130.719 Y159.006 E18.85865
G1 X130.153 Y159.71 E18.8887
G1 X129.528 Y160.361 E18.91871
G1 X128.847 Y160.955 E18.94877
G1 X128.116 Y161.486 E18.97882
G1 X127.342 Y161.95 E19.00883
G1 X126.529 Y162.344 E19.03888
G1 X125.685 Y162.664 E19.0689
G1 X124.815 Y162.909 E19.09897
G1 X123.928 Y163.075 E19.12898
G1 X122.777 Y163.173 E19.1674
G1 X122.17 Y163.186 E19.18759
G1 X113.075 Y163.185 E19.4901
G1 X112.377 Y163.176 E19.51331
G1 X111.476 Y163.125 E19.54333
G1 X110.582 Y162.993 E19.57339
G1 X109.704 Y162.784 E19.6034
G1 X108.847 Y162.497 E19.63346
G1 X108.02 Y162.136 E19.66348
G1 X107.227 Y161.703 E19.69353
G1 X106.476 Y161.202 E19.72355
G1 X105.772 Y160.636 E19.7536
G1 X105.121 Y160.01 E19.78364
G1 X104.528 Y159.329 E19.81367
G1 X103.998 Y158.598 E19.8437
G1 X103.534 Y157.823 E19.87374
G1 X103.14 Y157.01 E19.90379
G1 X102.82 Y156.166 E19.93381
G1 X102.576 Y155.296 E19.96387
G1 X102.41 Y154.408 E19.99391
G1 X102.313 Y153.253 E20.03247
G1 X102.3 Y152.644 E20.05273
G1 X102.301 Y83.634 E22.34801
G1 X102.31 Y82.96 E22.37043
G1 X102.362 Y82.058 E22.40048
G1 X102.494 Y81.165 E22.4305
G1 X102.704 Y80.286 E22.46056
G1 X102.991 Y79.43 E22.49059
G1 X103.352 Y78.603 E22.5206
G1 X103.785 Y77.81 E22.55065
G1 X104.287 Y77.059 E22.5807
G1 F2700 E17.5807
;MESH:CybICSsimple.stl
G0 F6000 X111.835 Y83.507
G0 X117.5 Y152.384
;TYPE:WALL-INNER
G1 F2700 E22.5807
G1 F1200 X121.9 Y152.384 E22.72704
G1 X121.9 Y83.684 E25.01201
G1 X113.1 Y83.684 E25.3047
G1 X113.1 Y152.384 E27.58967
G1 X117.5 Y152.384 E27.73602
G0 F6000 X117.5 Y152.784
;TYPE:WALL-OUTER
G1 F1200 X122.3 Y152.784 E27.89567
G1 X122.3 Y83.284 E30.20725
G1 X112.7 Y83.284 E30.52654
G1 X112.7 Y152.784 E32.83812
G1 X117.5 Y152.784 E32.99777
G0 F6000 X117.5 Y152.024
;TYPE:SKIN
G1 F1200 X113.46 Y152.024 E33.13214
G1 X113.46 Y84.044 E35.39317
G1 X121.54 Y84.044 E35.66191
G1 X121.54 Y152.024 E37.92293
G1 X117.5 Y152.024 E38.0573
G0 F6000 X117.5 Y152.284
G0 X113.66 Y152.284
G0 X113.66 Y151.561
G1 F1200 X113.923 Y151.824 E38.06967
G0 F6000 X114.488 Y151.824
G1 F1200 X113.66 Y150.995 E38.10864
G0 F6000 X113.66 Y150.429
G1 F1200 X115.054 Y151.824 E38.17424
G0 F6000 X115.62 Y151.824
G1 F1200 X113.66 Y149.864 E38.26643
G0 F6000 X113.66 Y149.298
G1 F1200 X116.185 Y151.824 E38.38522
G0 F6000 X116.751 Y151.824
G1 F1200 X113.66 Y148.732 E38.53063
G0 F6000 X113.66 Y148.166
G1 F1200 X117.317 Y151.824 E38.70267
G0 F6000 X117.882 Y151.824
G1 F1200 X113.66 Y147.601 E38.90129
G0 F6000 X113.66 Y147.035
G1 F1200 X118.448 Y151.824 E39.12652
G0 F6000 X119.014 Y151.824
G1 F1200 X113.66 Y146.469 E39.37838
G0 F6000 X113.66 Y145.904
G1 F1200 X119.58 Y151.824 E39.65684
G0 F6000 X120.145 Y151.824
G1 F1200 X113.66 Y145.338 E39.9619
G0 F6000 X113.66 Y144.772
G1 F1200 X120.711 Y151.824 E40.29358
G0 F6000 X121.277 Y151.824
G1 F1200 X113.66 Y144.207 E40.65186
G0 F6000 X113.66 Y143.641
G1 F1200 X121.34 Y151.322 E41.01313
G0 F6000 X121.34 Y150.756
G1 F1200 X113.66 Y143.075 E41.37439
G0 F6000 X113.66 Y142.51
G1 F1200 X121.34 Y150.19 E41.73564
G0 F6000 X121.34 Y149.625
G1 F1200 X113.66 Y141.944 E42.0969
G0 F6000 X113.66 Y141.378
G1 F1200 X121.34 Y149.059 E42.45817
G0 F6000 X121.34 Y148.493
G1 F1200 X113.66 Y140.813 E42.81942
G0 F6000 X113.66 Y140.247
G1 F1200 X121.34 Y147.927 E43.18066
G0 F6000 X121.34 Y147.362
G1 F1200 X113.66 Y139.681 E43.54193
G0 F6000 X113.66 Y139.115
G1 F1200 X121.34 Y146.796 E43.90319
G0 F6000 X121.34 Y146.23
G1 F1200 X113.66 Y138.55 E44.26444
G0 F6000 X113.66 Y137.984
G1 F1200 X121.34 Y145.665 E44.6257
G0 F6000 X121.34 Y145.099
G1 F1200 X113.66 Y137.418 E44.98697
G0 F6000 X113.66 Y136.853
G1 F1200 X121.34 Y144.533 E45.34822
G0 F6000 X121.34 Y143.968
G1 F1200 X113.66 Y136.287 E45.70948
G0 F6000 X113.66 Y135.721
G1 F1200 X121.34 Y143.402 E46.07075
G0 F6000 X121.34 Y142.836
G1 F1200 X113.66 Y135.156 E46.43199
G0 F6000 X113.66 Y134.59
G1 F1200 X121.34 Y142.271 E46.79326
G0 F6000 X121.34 Y141.705
G1 F1200 X113.66 Y134.024 E47.15453
G0 F6000 X113.66 Y133.459
G1 F1200 X121.34 Y141.139 E47.51577
G0 F6000 X121.34 Y140.574
G1 F1200 X113.66 Y132.893 E47.87704
G0 F6000 X113.66 Y132.327
G1 F1200 X121.34 Y140.008 E48.23831
G0 F6000 X121.34 Y139.442
G1 F1200 X113.66 Y131.762 E48.59955
G0 F6000 X113.66 Y131.196
G1 F1200 X121.34 Y138.876 E48.96079
G0 F6000 X121.34 Y138.311
G1 F1200 X113.66 Y130.63 E49.32206
G0 F6000 X113.66 Y130.065
G1 F1200 X121.34 Y137.745 E49.6833
G0 F6000 X121.34 Y137.179
G1 F1200 X113.66 Y129.499 E50.04455
G0 F6000 X113.66 Y128.933
G1 F1200 X121.34 Y136.614 E50.40581
G0 F6000 X121.34 Y136.048
G1 F1200 X113.66 Y128.367 E50.76708
G0 F6000 X113.66 Y127.802
G1 F1200 X121.34 Y135.482 E51.12833
G0 F6000 X121.34 Y134.917
G1 F1200 X113.66 Y127.236 E51.48959
G0 F6000 X113.66 Y126.67
G1 F1200 X121.34 Y134.351 E51.85086
G0 F6000 X121.34 Y133.785
G1 F1200 X113.66 Y126.105 E52.2121
G0 F6000 X113.66 Y125.539
G1 F1200 X121.34 Y133.22 E52.57337
G0 F6000 X121.34 Y132.654
G1 F1200 X113.66 Y124.973 E52.93464
G0 F6000 X113.66 Y124.408
G1 F1200 X121.34 Y132.088 E53.29588
G0 F6000 X121.34 Y131.523
G1 F1200 X113.66 Y123.842 E53.65715
G0 F6000 X113.66 Y123.276
G1 F1200 X121.34 Y130.957 E54.01842
G0 F6000 X121.34 Y130.391
G1 F1200 X113.66 Y122.711 E54.37966
G0 F6000 X113.66 Y122.145
G1 F1200 X121.34 Y129.826 E54.74093
G0 F6000 X121.34 Y129.26
G1 F1200 X113.66 Y121.579 E55.10219
G0 F6000 X113.66 Y121.014
G1 F1200 X121.34 Y128.694 E55.46344
G0 F6000 X121.34 Y128.128
G1 F1200 X113.66 Y120.448 E55.82468
G0 F6000 X113.66 Y119.882
G1 F1200 X121.34 Y127.563 E56.18595
G0 F6000 X121.34 Y126.997
G1 F1200 X113.66 Y119.316 E56.54722
G0 F6000 X113.66 Y118.751
G1 F1200 X121.34 Y126.431 E56.90846
G0 F6000 X121.34 Y125.866
G1 F1200 X113.66 Y118.185 E57.26973
G0 F6000 X113.66 Y117.619
G1 F1200 X121.34 Y125.3 E57.63099
G0 F6000 X121.34 Y124.734
G1 F1200 X113.66 Y117.054 E57.99224
G0 F6000 X113.66 Y116.488
G1 F1200 X121.34 Y124.169 E58.3535
G0 F6000 X121.34 Y123.603
G1 F1200 X113.66 Y115.922 E58.71477
G0 F6000 X113.66 Y115.357
G1 F1200 X121.34 Y123.037 E59.07601
G0 F6000 X121.34 Y122.472
G1 F1200 X113.66 Y114.791 E59.43728
G0 F6000 X113.66 Y114.225
G1 F1200 X121.34 Y121.906 E59.79855
G0 F6000 X121.34 Y121.34
G1 F1200 X113.66 Y113.66 E60.15979
G0 F6000 X113.66 Y113.094
G1 F1200 X121.34 Y120.775 E60.52106
G0 F6000 X121.34 Y120.209
G1 F1200 X113.66 Y112.528 E60.88233
G0 F6000 X113.66 Y111.963
G1 F1200 X121.34 Y119.643 E61.24357
G0 F6000 X121.34 Y119.077
G1 F1200 X113.66 Y111.397 E61.60481
G0 F6000 X113.66 Y110.831
G1 F1200 X121.34 Y118.512 E61.96608
G0 F6000 X121.34 Y117.946
G1 F1200 X113.66 Y110.266 E62.32733
G0 F6000 X113.66 Y109.7
G1 F1200 X121.34 Y117.38 E62.68857
G0 F6000 X121.34 Y116.815
G1 F1200 X113.66 Y109.134 E63.04984
G0 F6000 X113.66 Y108.568
G1 F1200 X121.34 Y116.249 E63.4111
G0 F6000 X121.34 Y115.683
G1 F1200 X113.66 Y108.003 E63.77235
G0 F6000 X113.66 Y107.437
G1 F1200 X121.34 Y115.118 E64.13361
G0 F6000 X121.34 Y114.552
G1 F1200 X113.66 Y106.871 E64.49488
G0 F6000 X113.66 Y106.306
G1 F1200 X121.34 Y113.986 E64.85612
G0 F6000 X121.34 Y113.421
G1 F1200 X113.66 Y105.74 E65.21739
G0 F6000 X113.66 Y105.174
G1 F1200 X121.34 Y112.855 E65.57866
G0 F6000 X121.34 Y112.289
G1 F1200 X113.66 Y104.609 E65.9399
G0 F6000 X113.66 Y104.043
G1 F1200 X121.34 Y111.724 E66.30117
G0 F6000 X121.34 Y111.158
G1 F1200 X113.66 Y103.477 E66.66244
G0 F6000 X113.66 Y102.912
G1 F1200 X121.34 Y110.592 E67.02368
G0 F6000 X121.34 Y110.027
G1 F1200 X113.66 Y102.346 E67.38495
G0 F6000 X113.66 Y101.78
G1 F1200 X121.34 Y109.461 E67.74622
G0 F6000 X121.34 Y108.895
G1 F1200 X113.66 Y101.215 E68.10746
G0 F6000 X113.66 Y100.649
G1 F1200 X121.34 Y108.329 E68.4687
G0 F6000 X121.34 Y107.764
G1 F1200 X113.66 Y100.083 E68.82997
G0 F6000 X113.66 Y99.518
G1 F1200 X121.34 Y107.198 E69.19121
G0 F6000 X121.34 Y106.632
G1 F1200 X113.66 Y98.952 E69.55246
G0 F6000 X113.66 Y98.386
G1 F1200 X121.34 Y106.067 E69.91372
G0 F6000 X121.34 Y105.501
G1 F1200 X113.66 Y97.82 E70.27499
G0 F6000 X113.66 Y97.255
G1 F1200 X121.34 Y104.935 E70.63624
G0 F6000 X121.34 Y104.37
G1 F1200 X113.66 Y96.689 E70.9975
G0 F6000 X113.66 Y96.123
G1 F1200 X121.34 Y103.804 E71.35877
G0 F6000 X121.34 Y103.238
G1 F1200 X113.66 Y95.558 E71.72001
G0 F6000 X113.66 Y94.992
G1 F1200 X121.34 Y102.673 E72.08128
G0 F6000 X121.34 Y102.107
G1 F1200 X113.66 Y94.426 E72.44255
G0 F6000 X113.66 Y93.861
G1 F1200 X121.34 Y101.541 E72.80379
G0 F6000 X121.34 Y100.976
G1 F1200 X113.66 Y93.295 E73.16506
G0 F6000 X113.66 Y92.729
G1 F1200 X121.34 Y100.41 E73.52633
G0 F6000 X121.34 Y99.844
G1 F1200 X113.66 Y92.164 E73.88757
G0 F6000 X113.66 Y91.598
G1 F1200 X121.34 Y99.278 E74.24881
G0 F6000 X121.34 Y98.713
G1 F1200 X113.66 Y91.032 E74.61008
G0 F6000 X113.66 Y90.467
G1 F1200 X121.34 Y98.147 E74.97132
G0 F6000 X121.34 Y97.581
G1 F1200 X113.66 Y89.901 E75.33257
G0 F6000 X113.66 Y89.335
G1 F1200 X121.34 Y97.016 E75.69383
G0 F6000 X121.34 Y96.45
G1 F1200 X113.66 Y88.769 E76.0551
G0 F6000 X113.66 Y88.204
G1 F1200 X121.34 Y95.884 E76.41635
G0 F6000 X121.34 Y95.319
G1 F1200 X113.66 Y87.638 E76.77761
G0 F6000 X113.66 Y87.072
G1 F1200 X121.34 Y94.753 E77.13888
G0 F6000 X121.34 Y94.187
G1 F1200 X113.66 Y86.507 E77.50012
G0 F6000 X113.66 Y85.941
G1 F1200 X121.34 Y93.622 E77.86139
G0 F6000 X121.34 Y93.056
