;FLAVOR:Marlin
;TIME:4212
;Filament used: 1.66754m
;Layer height: 0.2
;MINX:101.5
;MINY:73.118
;MINZ:0.2
;MAXX:133.5
;MAXY:165.018
;MAXZ:72.8
;TARGET_MACHINE.NAME:Creality Ender-3
;Generated with Cura_SteamEngine 5.8.1
M140 S70
M105
M190 S70
M104 S220
M105
M109 S220
M82 ;absolute extrusion mode
; Ender 3 Custom Start G-code
G92 E0 ; Reset Extruder
G28 ; Home all axes
G1 Z2.0 F3000 ; Move Z Axis up little to prevent scratching of Heat Bed
G1 X0.1 Y20 Z0.3 F5000.0 ; Move to start position
G1 X0.1 Y200.0 Z0.3 F1500.0 E15 ; Draw the first line
G1 X0.4 Y200.0 Z0.3 F5000.0 ; Move to side a little
G1 X0.4 Y20 Z0.3 F1500.0 E30 ; Draw the second line
G92 E0 ; Reset Extruder
G1 Z2.0 F3000 ; Move Z Axis up little to prevent scratching of Heat Bed
G1 X5 Y20 Z0.3 F5000.0 ; Move over to prevent blob squish
G92 E0
G92 E0
G1 F2700 E-5
;LAYER_COUNT:364
;LAYER:0
M107
G0 F6000 X103.663 Y77.589 Z0.2
;TYPE:SKIRT
G1 F2700 E0
G1 F1200 X104.229 Y76.886 E0.03002
G1 X104.955 Y76.133 E0.06481
G1 X105.691 Y75.496 E0.09718
G1 X106.422 Y74.966 E0.12721
G1 X107.32 Y74.43 E0.162
G1 X108.198 Y74.009 E0.19438
G1 X109.109 Y73.668 E0.22674
G1 X110.047 Y73.408 E0.25911
G1 X111.014 Y73.23 E0.29181
G1 X112.141 Y73.134 E0.32943
G1 X112.814 Y73.119 E0.35182
G1 X121.798 Y73.118 E0.65063
G1 X122.682 Y73.131 E0.68004
G1 X123.654 Y73.19 E0.71243
G1 X124.617 Y73.336 E0.74482
G1 X125.564 Y73.567 E0.77724
G1 X126.485 Y73.88 E0.8096
G1 X127.377 Y74.274 E0.84203
G1 X128.23 Y74.745 E0.87444
G1 X129.036 Y75.289 E0.90678
G1 X129.793 Y75.903 E0.9392
G1 X130.491 Y76.581 E0.97156
G1 X131.127 Y77.317 E1.00392
G1 X131.657 Y78.049 E1.03397
G1 X132.193 Y78.947 E1.06876
G1 X132.599 Y79.794 E1.1
G1 X132.953 Y80.737 E1.1335
G1 X133.212 Y81.676 E1.1659
G1 X133.389 Y82.642 E1.19856
G1 X133.484 Y83.758 E1.23581
G1 X133.5 Y84.466 E1.25937
G1 X133.499 Y153.418 E3.55272
G1 X133.488 Y154.181 E3.5781
G1 X133.431 Y155.154 E3.61052
G1 X133.286 Y156.117 E3.64291
G1 X133.057 Y157.063 E3.67528
G1 X132.746 Y157.987 E3.70771
G1 X132.354 Y158.878 E3.74008
G1 X131.886 Y159.73 E3.77242
G1 X131.364 Y160.511 E3.80366
G1 X130.731 Y161.296 E3.8372
G1 X130.106 Y161.947 E3.86722
G1 X129.317 Y162.635 E3.90203
G1 X128.557 Y163.185 E3.93324
G1 X127.69 Y163.702 E3.96681
G1 X126.812 Y164.124 E3.99921
G1 X125.901 Y164.466 E4.03158
G1 X124.962 Y164.727 E4.06399
G1 X123.996 Y164.905 E4.09666
G1 X122.845 Y165.003 E4.13508
G1 X122.17 Y165.018 E4.15754
G1 X113.064 Y165.017 E4.46041
G1 X112.331 Y165.006 E4.48479
G1 X111.359 Y164.949 E4.51717
G1 X110.396 Y164.803 E4.54957
G1 X109.45 Y164.574 E4.58194
G1 X108.526 Y164.262 E4.61438
G1 X107.636 Y163.87 E4.64672
G1 X106.813 Y163.419 E4.67794
G1 X105.974 Y162.858 E4.71151
G1 X105.27 Y162.292 E4.74155
G1 X104.517 Y161.567 E4.77632
G1 X103.88 Y160.831 E4.80869
G1 X103.35 Y160.1 E4.83872
G1 X102.814 Y159.203 E4.87348
G1 X102.392 Y158.325 E4.90588
G1 X102.05 Y157.413 E4.93827
G1 X101.79 Y156.475 E4.97065
G1 X101.612 Y155.506 E5.00342
G1 X101.514 Y154.327 E5.04276
G1 X101.5 Y153.676 E5.06442
G1 X101.501 Y84.655 E7.36007
G1 X101.512 Y83.946 E7.38365
G1 X101.57 Y82.973 E7.41607
G1 X101.716 Y82.01 E7.44847
G1 X101.946 Y81.063 E7.48088
G1 X102.258 Y80.141 E7.51326
G1 X102.65 Y79.251 E7.5456
G1 X103.12 Y78.397 E7.57802
G1 X103.663 Y77.589 E7.6104
G0 F6000 X103.975 Y77.84
G1 F1200 X104.541 Y77.137 E7.64042
G1 X105.217 Y76.435 E7.67284
G1 X105.926 Y75.82 E7.70405
G1 X106.657 Y75.29 E7.73408
G1 X107.493 Y74.79 E7.76648
G1 X108.339 Y74.383 E7.79771
G1 X109.217 Y74.053 E7.8289
G1 X110.12 Y73.801 E7.86009
G1 X111.048 Y73.629 E7.89148
G1 X112.175 Y73.533 E7.9291
G1 X112.814 Y73.519 E7.95036
G1 X121.792 Y73.518 E8.24896
G1 X122.658 Y73.53 E8.27777
G1 X123.595 Y73.586 E8.30899
G1 X124.523 Y73.725 E8.3402
G1 X125.436 Y73.946 E8.37144
G1 X126.324 Y74.246 E8.40262
G1 X127.184 Y74.624 E8.43386
G1 X128.007 Y75.077 E8.46511
G1 X128.785 Y75.6 E8.49629
G1 X129.515 Y76.19 E8.52751
G1 X130.189 Y76.843 E8.55872
G1 X130.803 Y77.552 E8.58992
G1 X131.333 Y78.284 E8.61997
G1 X131.832 Y79.12 E8.65236
G1 X132.238 Y79.967 E8.6836
G1 X132.568 Y80.844 E8.71476
G1 X132.819 Y81.749 E8.746
G1 X132.99 Y82.676 E8.77735
G1 X133.085 Y83.792 E8.8146
G1 X133.1 Y84.466 E8.83703
G1 X133.099 Y153.413 E11.13021
G1 X133.089 Y154.158 E11.15499
G1 X133.035 Y155.095 E11.18621
G1 X132.897 Y156.024 E11.21745
G1 X132.678 Y156.936 E11.24864
G1 X132.38 Y157.826 E11.27986
G1 X132.003 Y158.686 E11.31109
G1 X131.553 Y159.508 E11.34226
G1 X131.031 Y160.289 E11.3735
G1 X130.442 Y161.019 E11.4047
G1 X129.817 Y161.67 E11.43472
G1 X129.082 Y162.311 E11.46716
G1 X128.322 Y162.861 E11.49836
G1 X127.516 Y163.342 E11.52958
G1 X126.671 Y163.75 E11.56079
G1 X125.793 Y164.081 E11.59199
G1 X124.889 Y164.334 E11.62322
G1 X123.962 Y164.506 E11.65458
G1 X122.811 Y164.604 E11.693
G1 X122.17 Y164.618 E11.71432
G1 X113.07 Y164.617 E12.01699
G1 X112.354 Y164.607 E12.0408
G1 X111.418 Y164.553 E12.07199
G1 X110.489 Y164.414 E12.10323
G1 X109.577 Y164.195 E12.13443
G1 X108.687 Y163.896 E12.16565
G1 X107.828 Y163.519 E12.19685
G1 X107.005 Y163.068 E12.22807
G1 X106.225 Y162.546 E12.25928
G1 X105.521 Y161.98 E12.28933
G1 X104.819 Y161.305 E12.32172
G1 X104.204 Y160.596 E12.35294
G1 X103.674 Y159.865 E12.38297
G1 X103.174 Y159.029 E12.41537
G1 X102.766 Y158.184 E12.44658
G1 X102.435 Y157.306 E12.47779
G1 X102.183 Y156.402 E12.509
G1 X102.011 Y155.473 E12.54042
G1 X101.913 Y154.294 E12.57977
G1 X101.9 Y153.676 E12.60033
G1 X101.901 Y84.661 E14.89578
G1 X101.911 Y83.969 E14.9188
G1 X101.966 Y83.032 E14.95002
G1 X102.105 Y82.104 E14.98123
G1 X102.325 Y81.191 E15.01246
G1 X102.624 Y80.302 E15.04366
G1 X103.001 Y79.443 E15.07486
G1 X103.452 Y78.62 E15.10607
G1 X103.975 Y77.84 E15.13731
G0 F6000 X104.287 Y78.091
G1 F1200 X104.853 Y77.388 E15.16732
G1 X105.48 Y76.737 E15.19739
G1 X106.161 Y76.144 E15.22742
G1 X106.892 Y75.614 E15.25745
G1 X107.667 Y75.15 E15.2875
G1 X108.48 Y74.757 E15.31753
G1 X109.325 Y74.438 E15.34757
G1 X110.194 Y74.194 E15.37759
G1 X111.082 Y74.028 E15.40764
G1 X112.209 Y73.932 E15.44526
G1 X112.814 Y73.919 E15.46538
G1 X121.787 Y73.918 E15.76383
G1 X122.635 Y73.929 E15.79203
G1 X123.537 Y73.982 E15.82209
G1 X124.43 Y74.114 E15.85211
G1 X125.308 Y74.325 E15.88214
G1 X126.164 Y74.613 E15.91218
G1 X126.992 Y74.975 E15.94224
G1 X127.784 Y75.409 E15.97228
G1 X128.534 Y75.912 E16.00231
G1 X129.237 Y76.478 E16.03233
G1 X129.887 Y77.105 E16.06237
G1 X130.479 Y77.787 E16.09241
G1 X131.009 Y78.519 E16.12247
G1 X131.472 Y79.294 E16.15249
G1 X131.864 Y80.108 E16.18254
G1 X132.183 Y80.952 E16.21255
G1 X132.426 Y81.822 E16.24259
G1 X132.591 Y82.71 E16.27264
G1 X132.686 Y83.826 E16.30989
G1 X132.7 Y84.466 E16.33118
G1 X132.699 Y153.408 E18.6242
G1 X132.69 Y154.135 E18.64838
G1 X132.639 Y155.037 E18.67843
G1 X132.508 Y155.931 E18.70848
G1 X132.299 Y156.809 E18.7385
G1 X132.013 Y157.666 E18.76855
G1 X131.652 Y158.494 E18.79859
G1 X131.22 Y159.286 E18.8286
G1 X130.719 Y160.038 E18.85865
G1 X130.153 Y160.742 E18.8887
G1 X129.528 Y161.393 E18.91871
G1 X128.847 Y161.987 E18.94877
G1 X128.116 Y162.518 E18.97882
G1 X127.342 Y162.982 E19.00883
G1 X126.529 Y163.376 E19.03888
G1 X125.685 Y163.696 E19.0689
G1 X124.815 Y163.941 E19.09897
G1 X123.928 Y164.107 E19.12898
G1 X122.777 Y164.205 E19.1674
G1 X122.17 Y164.218 E19.18759
G1 X113.075 Y164.217 E19.4901
G1 X112.377 Y164.208 E19.51331
G1 X111.476 Y164.157 E19.54333
G1 X110.582 Y164.025 E19.57339
G1 X109.704 Y163.816 E19.6034
G1 X108.847 Y163.529 E19.63346
G1 X108.02 Y163.168 E19.66348
G1 X107.227 Y162.735 E19.69353
G1 X106.476 Y162.234 E19.72355
G1 X105.772 Y161.668 E19.7536
G1 X105.121 Y161.042 E19.78364
G1 X104.528 Y160.361 E19.81367
G1 X103.998 Y159.63 E19.8437
G1 X103.534 Y158.855 E19.87374
G1 X103.14 Y158.042 E19.90379
G1 X102.82 Y157.198 E19.93381
G1 X102.576 Y156.328 E19.96387
G1 X102.41 Y155.44 E19.99391
G1 X102.313 Y154.285 E20.03247
G1 X102.3 Y153.676 E20.05273
G1 X102.301 Y84.666 E22.34801
G1 X102.31 Y83.992 E22.37043
G1 X102.362 Y83.09 E22.40048
G1 X102.494 Y82.197 E22.4305
G1 X102.704 Y81.318 E22.46056
G1 X102.991 Y80.462 E22.49059
G1 X103.352 Y79.635 E22.5206
G1 X103.785 Y78.842 E22.55065
G1 X104.287 Y78.091 E22.5807
G1 F2700 E17.5807
;MESH:CybICSsimple.stl
G0 F6000 X111.835 Y84.539
G0 X117.5 Y153.416
;TYPE:WALL-INNER
G1 F2700 E22.5807
G1 F1200 X121.9 Y153.416 E22.72704
G1 X121.9 Y84.716 E25.01201
G1 X113.1 Y84.716 E25.3047
G1 X113.1 Y153.416 E27.58967
G1 X117.5 Y153.416 E27.73602
G0 F6000 X117.5 Y153.816
;TYPE:WALL-OUTER
G1 F1200 X122.3 Y153.816 E27.89567
G1 X122.3 Y84.316 E30.20725
G1 X112.7 Y84.316 E30.52654
G1 X112.7 Y153.816 E32.83812
G1 X117.5 Y153.816 E32.99777
G0 F6000 X117.5 Y153.056
;TYPE:SKIN
G1 F1200 X113.46 Y153.056 E33.13214
G1 X113.46 Y85.076 E35.39317
G1 X121.54 Y85.076 E35.66191
G1 X121.54 Y153.056 E37.92293
G1 X117.5 Y153.056 E38.0573
G0 F6000 X117.5 Y153.316
G0 X113.66 Y153.316
G0 X113.66 Y152.692
G1 F1200 X113.824 Y152.856 E38.06502
G0 F6000 X114.389 Y152.856
G1 F1200 X113.66 Y152.126 E38.09933
G0 F6000 X113.66 Y151.561
G1 F1200 X114.955 Y152.856 E38.16024
G0 F6000 X115.521 Y152.856
G1 F1200 X113.66 Y150.995 E38.24778
G0 F6000 X113.66 Y150.429
G1 F1200 X116.086 Y152.856 E38.36191
G0 F6000 X116.652 Y152.856
G1 F1200 X113.66 Y149.864 E38.50265
G0 F6000 X113.66 Y149.298
G1 F1200 X117.218 Y152.856 E38.67001
G0 F6000 X117.783 Y152.856
G1 F1200 X113.66 Y148.732 E38.86396
G0 F6000 X113.66 Y148.166
G1 F1200 X118.349 Y152.856 E39.08454
G0 F6000 X118.915 Y152.856
G1 F1200 X113.66 Y147.601 E39.33172
G0 F6000 X113.66 Y147.035
G1 F1200 X119.481 Y152.856 E39.60552
G0 F6000 X120.046 Y152.856
G1 F1200 X113.66 Y146.469 E39.90592
G0 F6000 X113.66 Y145.904
G1 F1200 X120.612 Y152.856 E40.23292
G0 F6000 X121.178 Y152.856
G1 F1200 X113.66 Y145.338 E40.58655
G0 F6000 X113.66 Y144.772
G1 F1200 X121.34 Y152.453 E40.94782
G0 F6000 X121.34 Y151.887
G1 F1200 X113.66 Y144.207 E41.30906
G0 F6000 X113.66 Y143.641
G1 F1200 X121.34 Y151.322 E41.67033
G0 F6000 X121.34 Y150.756
G1 F1200 X113.66 Y143.075 E42.03159
G0 F6000 X113.66 Y142.51
G1 F1200 X121.34 Y150.19 E42.39284
G0 F6000 X121.34 Y149.625
G1 F1200 X113.66 Y141.944 E42.7541
G0 F6000 X113.66 Y141.378
G1 F1200 X121.34 Y149.059 E43.11537
G0 F6000 X121.34 Y148.493
G1 F1200 X113.66 Y140.813 E43.47662
G0 F6000 X113.66 Y140.247
G1 F1200 X121.34 Y147.927 E43.83786
G0 F6000 X121.34 Y147.362
G1 F1200 X113.66 Y139.681 E44.19913
G0 F6000 X113.66 Y139.115
G1 F1200 X121.34 Y146.796 E44.56039
G0 F6000 X121.34 Y146.23
G1 F1200 X113.66 Y138.55 E44.92164
G0 F6000 X113.66 Y137.984
G1 F1200 X121.34 Y145.665 E45.2829
G0 F6000 X121.34 Y145.099
G1 F1200 X113.66 Y137.418 E45.64417
G0 F6000 X113.66 Y136.853
G1 F1200 X121.34 Y144.533 E46.00542
G0 F6000 X121.34 Y143.968
G1 F1200 X113.66 Y136.287 E46.36668
G0 F6000 X113.66 Y135.721
G1 F1200 X121.34 Y143.402 E46.72795
G0 F6000 X121.34 Y142.836
G1 F1200 X113.66 Y135.156 E47.08919
G0 F6000 X113.66 Y134.59
G1 F1200 X121.34 Y142.271 E47.45046
G0 F6000 X121.34 Y141.705
G1 F1200 X113.66 Y134.024 E47.81173
G0 F6000 X113.66 Y133.459
G1 F1200 X121.34 Y141.139 E48.17297
G0 F6000 X121.34 Y140.574
G1 F1200 X113.66 Y132.893 E48.53424
G0 F6000 X113.66 Y132.327
G1 F1200 X121.34 Y140.008 E48.89551
G0 F6000 X121.34 Y139.442
G1 F1200 X113.66 Y131.762 E49.25675
G0 F6000 X113.66 Y131.196
G1 F1200 X121.34 Y138.876 E49.61799
G0 F6000 X121.34 Y138.311
G1 F1200 X113.66 Y130.63 E49.97926
G0 F6000 X113.66 Y130.065
G1 F1200 X121.34 Y137.745 E50.3405
G0 F6000 X121.34 Y137.179
G1 F1200 X113.66 Y129.499 E50.70175
G0 F6000 X113.66 Y128.933
G1 F1200 X121.34 Y136.614 E51.06301
G0 F6000 X121.34 Y136.048
G1 F1200 X113.66 Y128.367 E51.42428
G0 F6000 X113.66 Y127.802
G1 F1200 X121.34 Y135.482 E51.78553
G0 F6000 X121.34 Y134.917
G1 F1200 X113.66 Y127.236 E52.14679
G0 F6000 X113.66 Y126.67
G1 F1200 X121.34 Y134.351 E52.50806
G0 F6000 X121.34 Y133.785
G1 F1200 X113.66 Y126.105 E52.8693
G0 F6000 X113.66 Y125.539
G1 F1200 X121.34 Y133.22 E53.23057
G0 F6000 X121.34 Y132.654
G1 F1200 X113.66 Y124.973 E53.59184
G0 F6000 X113.66 Y124.408
G1 F1200 X121.34 Y132.088 E53.95308
G0 F6000 X121.34 Y131.523
G1 F1200 X113.66 Y123.842 E54.31435
G0 F6000 X113.66 Y123.276
G1 F1200 X121.34 Y130.957 E54.67562
G0 F6000 X121.34 Y130.391
G1 F1200 X113.66 Y122.711 E55.03686
G0 F6000 X113.66 Y122.145
G1 F1200 X121.34 Y129.826 E55.39813
G0 F6000 X121.34 Y129.26
G1 F1200 X113.66 Y121.579 E55.75939
G0 F6000 X113.66 Y121.014
G1 F1200 X121.34 Y128.694 E56.12064
G0 F6000 X121.34 Y128.128
G1 F1200 X113.66 Y120.448 E56.48188
G0 F6000 X113.66 Y119.882
G1 F1200 X121.34 Y127.563 E56.84315
G0 F6000 X121.34 Y126.997
G1 F1200 X113.66 Y119.316 E57.20442
G0 F6000 X113.66 Y118.751
G1 F1200 X121.34 Y126.431 E57.56566
G0 F6000 X121.34 Y125.866
G1 F1200 X113.66 Y118.185 E57.92693
G0 F6000 X113.66 Y117.619
G1 F1200 X121.34 Y125.3 E58.28819
G0 F6000 X121.34 Y124.734
G1 F1200 X113.66 Y117.054 E58.64944
G0 F6000 X113.66 Y116.488
G1 F1200 X121.34 Y124.169 E59.0107
G0 F6000 X121.34 Y123.603
G1 F1200 X113.66 Y115.922 E59.37197
G0 F6000 X113.66 Y115.357
G1 F1200 X121.34 Y123.037 E59.73321
G0 F6000 X121.34 Y122.472
G1 F1200 X113.66 Y114.791 E60.09448
G0 F6000 X113.66 Y114.225
G1 F1200 X121.34 Y121.906 E60.45575
G0 F6000 X121.34 Y121.34
G1 F1200 X113.66 Y113.66 E60.81699
G0 F6000 X113.66 Y113.094
G1 F1200 X121.34 Y120.775 E61.17826
G0 F6000 X121.34 Y120.209
G1 F1200 X113.66 Y112.528 E61.53953
G0 F6000 X113.66 Y111.963
G1 F1200 X121.34 Y119.643 E61.90077
G0 F6000 X121.34 Y119.077
G1 F1200 X113.66 Y111.397 E62.26201
G0 F6000 X113.66 Y110.831
G1 F1200 X121.34 Y118.512 E62.62328
G0 F6000 X121.34 Y117.946
G1 F1200 X113.66 Y110.266 E62.98453
G0 F6000 X113.66 Y109.7
G1 F1200 X121.34 Y117.38 E63.34577
G0 F6000 X121.34 Y116.815
G1 F1200 X113.66 Y109.134 E63.70704
G0 F6000 X113.66 Y108.568
G1 F1200 X121.34 Y116.249 E64.0683
G0 F6000 X121.34 Y115.683
G1 F1200 X113.66 Y108.003 E64.42955
G0 F6000 X113.66 Y107.437
G1 F1200 X121.34 Y115.118 E64.79081
G0 F6000 X121.34 Y114.552
G1 F1200 X113.66 Y106.871 E65.15208
G0 F6000 X113.66 Y106.306
G1 F1200 X121.34 Y113.986 E65.51332
G0 F6000 X121.34 Y113.421
G1 F1200 X113.66 Y105.74 E65.87459
G0 F6000 X113.66 Y105.174
G1 F1200 X121.34 Y112.855 E66.23586
G0 F6000 X121.34 Y112.289
G1 F1200 X113.66 Y104.609 E66.5971
G0 F6000 X113.66 Y104.043
G1 F1200 X121.34 Y111.724 E66.95837
G0 F6000 X121.34 Y111.158
G1 F1200 X113.66 Y103.477 E67.31964
G0 F6000 X113.66 Y102.912
G1 F1200 X121.34 Y110.592 E67.68088
G0 F6000 X121.34 Y110.027
G1 F1200 X113.66 Y102.346 E68.04215
G0 F6000 X113.66 Y101.78
G1 F1200 X121.34 Y109.461 E68.40342
G0 F6000 X121.34 Y108.895
G1 F1200 X113.66 Y101.215 E68.76466
G0 F6000 X113.66 Y100.649
G1 F1200 X121.34 Y108.329 E69.1259
G0 F6000 X121.34 Y107.764
G1 F1200 X113.66 Y100.083 E69.48717
G0 F6000 X113.66 Y99.518
G1 F1200 X121.34 Y107.198 E69.84841
G0 F6000 X121.34 Y106.632
G1 F1200 X113.66 Y98.952 E70.20966
G0 F6000 X113.66 Y98.386
G1 F1200 X121.34 Y106.067 E70.57092
G0 F6000 X121.34 Y105.501
G1 F1200 X113.66 Y97.82 E70.93219
G0 F6000 X113.66 Y97.255
G1 F1200 X121.34 Y104.935 E71.29344
G0 F6000 X121.34 Y104.37
G1 F1200 X113.66 Y96.689 E71.6547
G0 F6000 X113.66 Y96.123
G1 F1200 X121.34 Y103.804 E72.01597
G0 F6000 X121.34 Y103.238
G1 F1200 X113.66 Y95.558 E72.37721
G0 F6000 X113.66 Y94.992
G1 F1200 X121.34 Y102.673 E72.73848
G0 F6000 X121.34 Y102.107
G1 F1200 X113.66 Y94.426 E73.09975
G0 F6000 X113.66 Y93.861
G1 F1200 X121.34 Y101.541 E73.46099
G0 F6000 X121.34 Y100.976
G1 F1200 X113.66 Y93.295 E73.82226
G0 F6000 X113.66 Y92.729
G1 F1200 X121.34 Y100.41 E74.18353
G0 F6000 X121.34 Y99.844
G1 F1200 X113.66 Y92.164 E74.54477
G0 F6000 X113.66 Y91.598
G1 F1200 X121.34 Y99.278 E74.90601
G0 F6000 X121.34 Y98.713
G1 F1200 X113.66 Y91.032 E75.26728
G0 F6000 X113.66 Y90.467
G1 F1200 X121.34 Y98.147 E75.62852
G0 F6000 X121.34 Y97.581
G1 F1200 X113.66 Y89.901 E75.98977
G0 F6000 X113.66 Y89.335
G1 F1200 X121.34 Y97.016 E76.35103
G0 F6000 X121.34 Y96.45
G1 F1200 X113.66 Y88.769 E76.7123
G0 F6000 X113.66 Y88.204
G1 F1200 X121.34 Y95.884 E77.07355
G0 F6000 X121.34 Y95.319
G1 F1200 X113.66 Y87.638 E77.43481
G0 F6000 X113.66 Y87.072
G1 F1200 X121.34 Y94.753 E77.79608
G0 F6000 X121.34 Y94.187
